X:28
T:Blue Poppy 
R:
C:Bruce Osborne - Jan. 2003
Z:abc by bosborne@kos.net
M:3/4
L:1/8
K:Amaj
AB|c3 f ec|f2 e2 cB|A3 c BA|F3 A GF|\
E3 C A,B,|C2 E2 AB|ce cB Ac|B4 AB|\
c3 f ec|f2 e2 cB|A3 c BA|F3 A GF|\
E3 C A,B,|C2 E2 AB|ce cB GB|A4||\
cd|e3 a ga|f2 e2 AB|c3 B AF|E4 CD|\
E3 G AB|c2 e2 ef|ec Ac BA|B4 cd|\
e3 a ga|f2 e2 AB|c3 B AF|E4 CD|\
E3 G AB|c2 e2 ef|ec BA GB|A4||
